16x16/apps/ZeroNet.svg

<svg height="16" width="16" xmlns="http://www.w3.org/2000/svg"><g fill-rule="evenodd"><path d="m3 9.396v-5.493c0-.784.2-.805.805-1.168l4.187-2.511c.54-.29.526-.296.975-.029l5.033 2.996-1.33 2.539-4.167-2.656-2.503 1.723v2.803z" fill="#b66af5"/><path d="m13.996 6.515v5.545c.004.812-.159.809-.77 1.175l-4.315 2.589c-.427.244-.452.226-.837-.003l-5.07-3.018 1.663-2.173 3.83 2.287 2.503-1.724v-2.843z" fill="#8a49ff"/><path d="m3 12.8 11-6.676v-2.924l-11 6.593z" fill="#a551ff"/></g></svg>

<svg height="16" width="16" xmlns="http://www.w3.org/2000/svg">
    <g fill-rule="evenodd">
        <path d="M3 9.396V3.903c0-.784.2-.805.805-1.168L7.992.224c.54-.29.526-.296.975-.029L14 3.191 12.67 5.73 8.503 3.074 6 4.797V7.6z" fill="#b66af5"/>
        <path d="M13.996 6.515v5.545c.004.812-.159.809-.77 1.175l-4.315 2.589c-.427.244-.452.226-.837-.003l-5.07-3.018 1.663-2.173 3.83 2.287L11 11.193V8.35z" fill="#8a49ff"/>
        <path d="m3 12.8 11-6.676V3.2L3 9.793z" fill="#a551ff"/>
    </g>
</svg>
